X: 21
T: Arcanul
B: incoming
M:2/4
L:1/8
Q: 1/4=120
K:C
V:1 treble
 "^dm" (3:2:2D2 A, (3DEF | (3:2:2D2 A, (3DEF        |\
 (3:2:2D2 A, (3DEF       |(3:2:2^G2 F (3GFE         |
 [1 (3:2:2D2 A, (3DEF    | (3:2:2D2 A, (3DEF        |\
 (3:2:2D2 A, (3DEF       | (3:2:2D2 d (3:2:2d2 d    :|[2
 (3:2:2D2 A, (3DEF       |(3:2:2D2 A, (3DEF         |\
 (3:2:2D2 A, (3DEF       | D2 z2                    |:
 (3:2:2D2 d (3cBA        | (3:2:2^G2 F (3GFE        |\
 (3:2:2D2 A, (3DEF       |(3:2:2^G2 F (3GFE         |
 (3:2:2D2 d (3cBA        | (3:2:2^G2 F (3GFE        |\
 [1 (3:2:2D2 A, (3DEF    |"^dm" D2 A,2              :|[2
 (3:2:2D2 A, (3DEF       |"^dm" D2 z2               |:\
 G3 _A                   |"^fm 3" (3_AGF (3AGF      |
 G3 _A                   |"^fm 3" (3_AGF (3:2:2C2 F |[1\
 G3 _A                   |"^fm" (3_AGF (3AGF        |
 (3:2:2E2D (3 A,B,^C     |"^dm" D2- (3DG_A          :|[2\
 (3Bcd (3cB_A            |"^fm" (3G_AB (3AGF        |
 (3:2:2E2D (3A,.B,^C     |"^dm" D2 z2               |]
V:2 bass
 D,,2  F,,2              | ^G,,2  A,,2              |\
 D,2  F,2                |^G,2  A,2                 |
 [1D2  C2                | _B,2  A,2                |\
 A,2  G,2                | D,2 A,2                  :|[2
 D2 C2                   | A,2  F,2                 |\
 A,2  ^C2                | D2 F2                    |:
 A,2 F,2                 | ^G,2 B,2                 |\
 A,2 D2                  | ^G,2 B,2                 |
 A,2 D2                  | ^G,2  B,2                |[1\
 A,2  ^C2                | D2 A,2                   :|
 [2 A,2 ^C2              | D2 B,2                   |:\
 C2 E,2                  | F,2  _A,2                |
 G,2 _B,2                | _A,2  F,2                |[1\
 C,2 E,2                 | F,2  _A,2                |
 =A,2  ^C2               |D2 B,2                    :|[2\
 C,2 E,2                 | F,2  _A,2                |
 A,2  ^C2                |B,2 A,2                   |]
W: from Martin Junghans/Jutta Weber-Karn transcription
W: http://www.folkloretanznoten.de/
W: extracting score using Audiveris OMR engine
% abcbook-tune_id 63cb082f353a2621147e10be
% abcbook-tune_composer_id 
% abcbook-boost 0
% abcbook-difficulty 0
% abcbook-tags balkan dances
% abcbook-tablature 
% abcbook-transpose 
% abcbook-tuning 
% abcbook-lastupdated 1674250287865
% abcbook-soundfonts 
% abcbook-repeats 1
%%score 1 2

